X: 17555
T: Hip Hop Berceuse
R: reel
M: 4/4
K: Cmajor
|:C>DC>D EG A2|GECD A,4|C>DC>D EGAc|GECD C4:|
|:c>dcG EG A2|cedc d2g2|c>dcG EG A2|GECD C4:|

